X:1
T:The Dewy Dells of Yarrow.
B:The Penguin Book of Canadian Folk songs.
S:
M:5/4
L:1/4
K:C
D|F G A2 F|G A D2 D1/2 D1/2|
w:There lived a la-dy in the north; You could
F G A2 F|G G2 G1/2 G1/2|A c A2 (D1/2E1/2)|
w:scarce-ly find her mar-row. She was cour-ted by nine
F E C2 D1/2 E1/2|F1/2 E1/2 D2 A,|C C3 ||
w:no-ble-men On the dew-y dells of Yar-row. 